svg/color/note.svg

<svg width="64" height="65" viewBox="0 0 64 65" fill="none" xmlns="http://www.w3.org/2000/svg">
<rect y="0.303711" width="64" height="64" rx="32" fill="white"/>
<rect x="0.5" y="0.803711" width="63" height="63" rx="31.5" stroke="#070B14" stroke-opacity="0.15"/>
<path d="M46.7569 49.92C49.3001 48.9339 50.9837 46.8617 51.4871 44.2126C51.5047 44.1331 51.5194 44.0507 51.5342 43.9713C51.54 43.9359 51.5459 43.9036 51.5518 43.8682C51.6283 43.4091 51.6725 42.9322 51.6725 42.4436L51.6548 41.069C51.6607 32.4977 51.6519 23.9234 51.6725 15.3521C51.6725 14.628 51.4488 14.4544 50.7571 14.4573C43.6693 14.4809 36.5814 14.472 29.4907 14.475C29.2375 14.475 28.9844 14.5103 28.7018 14.5338C28.746 14.7016 28.7489 14.7781 28.7843 14.837C30.0588 16.9828 31.3245 19.1374 32.6343 21.2596C32.7756 21.4863 33.1877 21.657 33.4761 21.6629C35.1421 21.7011 36.811 21.654 38.48 21.6894C41.3175 21.7482 43.684 20.6974 45.6679 18.7224C46.1123 18.2779 46.495 17.7687 46.8982 17.2977C47.6665 18.0277 48.264 18.5958 49.0734 19.364C48.6878 19.6437 48.3876 19.8203 48.1345 20.0528C45.5825 22.3752 44.4846 25.2833 44.5229 28.7124C44.5758 33.2483 44.5229 37.7871 44.5464 42.3259C44.5494 42.9499 44.3963 43.2266 43.7252 43.1765C43.0188 43.1265 42.2976 43.2118 41.5941 43.1412C41.2851 43.1118 40.8848 42.9116 40.7258 42.6644C39.8281 41.2633 38.9921 39.821 38.1356 38.3934C33.4467 30.5933 28.7578 22.7961 24.0836 14.9871C23.8481 14.5957 23.5744 14.4514 23.1358 14.4632C22.3263 14.4867 21.5169 14.4926 20.7074 14.4632C16.3894 14.3219 12.7278 17.7981 12.7248 22.4753C12.7189 31.4999 12.7307 40.5274 12.7072 49.552C12.7072 50.2526 12.9338 50.4086 13.5872 50.4056C20.6986 50.385 27.8129 50.3939 34.9272 50.3909C35.1568 50.3909 35.3864 50.3615 35.6808 50.3409C35.6101 50.1378 35.5895 50.0171 35.5306 49.92C34.3121 47.8801 33.0787 45.8521 31.8808 43.8035C31.6365 43.3855 31.3598 43.2295 30.8859 43.2324C29.0462 43.253 27.2066 43.2266 25.3669 43.2472C23.6862 43.2678 22.0879 43.6887 20.7251 44.663C19.6596 45.4253 18.7236 46.376 17.7346 47.2473C17.4903 47.4622 17.2842 47.733 16.9516 47.3592C16.4836 46.8323 15.995 46.3201 15.3003 45.5695C15.6241 45.3635 15.9508 45.2163 16.1981 44.9867C18.7589 42.6261 19.948 39.7297 19.8686 36.2123C19.7655 31.6765 19.8538 27.1377 19.8332 22.6018C19.8332 22.0337 19.9804 21.7983 20.575 21.8306C21.2844 21.8689 21.9996 21.8689 22.709 21.8306C23.2417 21.8012 23.539 22.0043 23.8157 22.4664C29.0403 31.2114 34.3179 39.924 39.4866 48.7014C40.1872 49.8876 40.9083 50.4969 42.1504 50.4527H43.6899C44.2727 50.4733 44.8437 50.4233 45.3941 50.3173C45.5295 50.2967 45.662 50.2732 45.7915 50.2378C45.8621 50.2202 45.9269 50.1966 45.9975 50.176C46.0535 50.1613 46.1094 50.1407 46.1683 50.126C46.3684 50.0642 46.5656 49.9965 46.7569 49.9229V49.92Z" fill="#0018FF"/>
</svg>

<svg xmlns="http://www.w3.org/2000/svg" width="64" height="65" fill="none" viewBox="0 0 64 65"><rect width="64" height="64" y=".304" fill="#fff" rx="32"/><rect width="63" height="63" x=".5" y=".804" stroke="#070B14" stroke-opacity=".15" rx="31.5"/><path fill="#0018FF" d="M46.757 49.92c2.543-.986 4.227-3.058 4.73-5.707q.026-.121.047-.242l.018-.103c.076-.459.12-.936.12-1.424l-.017-1.375c.006-8.571-.003-17.146.017-25.717 0-.724-.223-.898-.915-.895-7.088.024-14.176.015-21.266.018-.253 0-.507.035-.79.059.045.168.048.244.083.303 1.275 2.146 2.54 4.3 3.85 6.423.142.226.554.397.842.403 1.666.038 3.335-.009 5.004.026 2.838.06 5.204-.992 7.188-2.967.444-.444.827-.953 1.23-1.424l2.175 2.066c-.385.28-.685.456-.938.689-2.552 2.322-3.65 5.23-3.612 8.66.053 4.535 0 9.074.023 13.613.003.624-.15.9-.82.85-.707-.05-1.428.036-2.132-.035-.309-.03-.71-.23-.868-.477-.898-1.4-1.734-2.843-2.59-4.27-4.69-7.8-9.378-15.598-14.052-23.407-.236-.391-.51-.536-.948-.524-.81.024-1.62.03-2.429 0-4.318-.141-7.98 3.335-7.982 8.012-.006 9.025.006 18.052-.018 27.077 0 .7.227.857.88.854 7.112-.021 14.226-.012 21.34-.015.23 0 .46-.03.754-.05-.07-.203-.091-.324-.15-.421-1.219-2.04-2.452-4.068-3.65-6.117-.244-.417-.521-.573-.995-.57-1.84.02-3.68-.006-5.52.014-1.68.02-3.278.442-4.64 1.416-1.066.762-2.002 1.713-2.991 2.584-.245.215-.45.486-.783.112-.468-.527-.957-1.039-1.652-1.79.324-.206.65-.353.898-.582 2.56-2.36 3.75-5.257 3.67-8.775-.102-4.536-.014-9.074-.035-13.61 0-.568.147-.804.742-.771.71.038 1.425.038 2.134 0 .533-.03.83.173 1.107.635 5.224 8.745 10.502 17.458 15.67 26.235.701 1.187 1.422 1.796 2.664 1.752h1.54a7.6 7.6 0 0 0 1.704-.136 3 3 0 0 0 .398-.08c.07-.017.135-.04.206-.061.056-.015.111-.035.17-.05q.301-.093.589-.203z"/></svg>
